icons/lines/trontron--trx-.svg

<svg xmlns="http://www.w3.org/2000/svg" width="24" height="24" viewBox="0 0 24 24" fill="none" stroke="currentColor" stroke-width="2" stroke-linecap="round" stroke-linejoin="round" >
  <path d="M2.59991 3.60001L9.29991 20.4C9.69991 21.3 10.3999 21.4 10.9999 20.6L20.3999 8.70001C20.6999 8.30001 20.6999 7.70001 20.2999 7.40001L17.1999 4.30001C17.0999 4.10001 16.7999 4.00001 16.6999 4.00001L3.69991 2.30001C2.79991 2.10001 2.29991 2.70001 2.59991 3.60001Z" stroke-miterlimit="10"/>
  <path d="M10 21L11 10L3 2.90002" stroke-miterlimit="10"/>
  <path d="M17 4L11 10L20 8.2" stroke-miterlimit="10"/>
  </svg>

<svg xmlns="http://www.w3.org/2000/svg" width="24" height="24" viewBox="0 0 24 24" fill="none" stroke="currentColor" stroke-width="2" stroke-linecap="round" stroke-linejoin="round">
  <path d="m10 21 1-11-8-7.1" />
  <path d="m17 4-6 6 9-1.8" />
  <path d="M9.3 20.4c.4.9 1.1 1 1.7.2l9.4-11.9c.3-.4.3-1-.1-1.3l-3.1-3.1c-.1-.2-.4-.3-.5-.3l-13-1.7c-.9-.2-1.4.4-1.1 1.3z" />
</svg>
